X:1
T:Coming to Jesus
T:Coming to Jesus
T:John Robson Sweney, arr.
T:W. H. Burrell, 1885
T:Public Domain Courtesy of the Cyber Hymnal™
T:Public Domain Courtesy of the Cyber Hymnal™
C:John Robson Sweney, arr.
Z:Public Domain
Z:Courtesy of the Cyber Hymnal™
%%score ( 1 2 ) ( 3 4 )
L:1/8
Q:1/4=76
M:4/4
K:Ab
V:1 treble 
V:2 treble 
V:3 bass 
V:4 bass 
V:1
 [CE]/[CE]/ | [CE][CA][CA][CA]>[EG][DF] | [DF][DG][DA] [CE]2 [CE]/[CE]/ | %3
w: 1.~With my|sin- wound- ed soul, To be|made ful- ly whole, And Thy|
w: 2.~Oh how|long I have tried, To re-|sist na- ture’s tide! All in|
w: 3.~I Thy|prom- ise be- lieve, That in|Thee I shall live, Thro’ Thy|
w: 4.~To be|Thine, whol- ly Thine, Pre- cious|Sav- ior di- vine, With my|
 [CE][Ec][DB][CA] [Ed][Ec] | [EB]3- [EB]2 [Ec]/[Ed]/ | [Ee][Ed][Ec][Ec]>[DB][CA] | %6
w: per- fect sal- va- tion to|see, * With my|heart all a- glow, To be|
w: vain I have sighed to be|free; * In my-|self all un- done, ’Neath the|
w: blood shed so free- ly for|me; * To ob-|tain a pure heart, And se-|
w: all con- se- crat- ed to|Thee; * To be|kept ev- ery hour, By Thy|
 [FA][EG][DF] [CE]2 E/E/ | [DF]<[Fd] [Ec][DB]<[Ec][EB] | [CA]3- [CA]2 ||"^Refrain" E/E/ | %10
w: washed white as snow, I am|com- ing, dear Sav- ior, to|Thee. *||
w: waves sink- ing down, I am|com- ing, dear Sav- ior, to|Thee. *|I am|
w: cure the good part, I am|com- ing, dear Sav- ior, to|Thee. *||
w: love’s won- drous power, I am|com- ing, dear Sav- ior, to|Thee. *||
 [GB]<[GB] [GB][GB]<[FA][GB] | [Ac]3- [Ac]2 E/E/ | [Ec]<[Ec] [Ec][Ac]<[GB][Ac] | %13
w: |||
w: com- ing, dear Sav- ior, to|Thee, * I am|com- ing, dear Sav- ior, to|
w: |||
w: |||
 [Gd]3- [Gd]2 [Ec]/[Ed]/ | [Ee][Ed][Ec][Ec]>[DB][CA] | [FA][EG][DF] [CE]2 E/E/ | %16
w: |||
w: Thee, * With my|heart all a- glow, To be|washed white as snow, I am|
w: |||
w: |||
 [DF]<[Fd] [Ec][DB]<[Ec][DB] | [CA]3- [CA]2 |] %18
w: ||
w: com- ing, dear Sav- ior, to|Thee. *|
w: ||
w: ||
V:2
 x | x6 | x6 | x6 | x6 | x6 | x5 E/E/ | x6 | x5 || E/E/ | x6 | x5 E/E/ | x6 | x6 | x6 | x5 E/E/ | %16
 x6 | x5 |] %18
V:3
 [A,,A,]/[A,,A,]/ | [A,,A,][A,,E,][A,,E,][A,,E,]>[A,,E,][A,,A,] | %2
 [D,A,][D,A,][D,F,] [A,,A,]2 [A,,A,]/[A,,A,]/ | [A,,A,][A,,A,][A,,A,]A, [G,B,]A, | %4
 [E,G,]3- [E,G,]2 A,/[A,B,]/ | [A,C][A,B,]A,[A,,A,]>[A,,A,][A,,A,] | %6
 [D,A,][D,A,][D,A,] [A,,A,]2 [C,A,]/[C,A,]/ | [D,A,]<[D,A,] [E,A,][E,G,]<[E,A,][E,G,] | %8
 [A,,A,]3- [A,,A,]2 || [A,C]/[A,C]/ | [E,E]<[E,E] [E,E][E,E]<[E,E][E,E] | %11
 [A,E]3- [A,E]2 [A,C]/[A,C]/ | A,<A, A,[E,E]<[E,D][E,C] | [E,B,]3- [E,B,]2 A,/[A,B,]/ | %14
 [A,C][A,B,]A,[A,,A,]>[A,,A,][A,,A,] | [D,A,][D,A,][D,A,] [A,,A,]2 [C,A,]/[C,A,]/ | %16
 [D,A,]<[D,A,] [E,A,][E,G,]<[E,A,][E,G,] | [A,,A,]3- [A,,A,]2 |] %18
V:4
 x | x6 | x6 | x3 A, A, x | x5 A,/ x/ | x2 A, x3 | x6 | x6 | x5 || x | x6 | x6 | A,<A, A, x3 | %13
 x5 A,/ x/ | x2 A, x3 | x6 | x6 | x5 |] %18

